X: 1
T: Quarries' Jig
T: 8x32J 3C (RSCDS Bk 36, Kent Smith)
P: Mrs. Muir McKenzie's Fancy
C: Mr. Sharp of Hoddam / Malcolm MacDonald's Colln
C: arr. Terry Traub, 12-22-1998, mods 12-21-2013
M: 6/8
L: 1/8
R: Jig
K: A
|: E|"A"Ace ece|"D"fdf "A"ece|"D"f>ga "A"edc|"B7"BcA "E"GFE| "A"Ace ece |"D"fdf "A"ece|"D"f>ga "A"ecA |"E"B3 "A"A2 :|
e|"A"a3 ecA|"D"f3 "A"ecA|"A"a3 ecA|"E"GAB BGE| "A"a3 ecA|"D"f3 fga|"A"efg aec|"E"B3 "A"A2 ||
e|"A"a3 ecA|"D"f3 "A"ecA|"A"a3 ecA|"D"FGA "E"BGE| "A"agf efg|"A"agf edc|"D"dbd "A"cac|"E"B3 "A"A2 |]
